src/components/headers/1/images/_symbols/header-1-logo.svg

<?xml version="1.0" encoding="UTF-8"?>
<svg version="1.1" viewBox="0 0 100 100" xmlns="http://www.w3.org/2000/svg">
    <path d="m16.301 0c-8.979 0-16.301 7.322-16.301 16.301v67.398c0 8.979 7.322 16.301 16.301 16.301h67.398c8.979 0 16.301-7.322 16.301-16.301v-67.398c0-8.979-7.322-16.301-16.301-16.301h-67.398zm0 6h67.398c5.758 0 10.301 4.543 10.301 10.301v67.398c0 4.521-2.807 8.282-6.797 9.694-3.006 0.674-4.884-0.093-6.465-2.784l-16.744-32.99c-0.995-1.989-3.978-1.989-4.973 0l-5.47 10.942c-0.995 1.989-3.98 1.989-4.975 0l-15.916-31.831c-0.995-1.989-3.978-1.989-4.972 0l-21.688 43.506v-63.935c0-5.758 4.543-10.301 10.301-10.301zm56.553 10.648c-5.129 0-9.286 4.157-9.286 9.286 1e-3 5.127 4.158 9.283 9.286 9.283 5.126-1e-3 9.282-4.157 9.283-9.283 0-5.128-4.156-9.285-9.283-9.286z"/>
</svg>

<?xml version="1.0" encoding="utf-8"?>
<svg viewBox="0 0 100 100" width="100" height="100" version="1.1" xmlns="http://www.w3.org/2000/svg">
  <path d="M 16.301 0 C 7.322 0 0 7.322 0 16.301 L 0 83.699 C 0 92.678 7.322 100 16.301 100 L 83.699 100 C 92.678 100 100 92.678 100 83.699 L 100 16.301 C 100 7.322 92.678 0 83.699 0 L 16.301 0 Z M 16.301 6 L 83.699 6 C 89.457 6 94 10.543 94 16.301 L 94 83.699 C 94 88.22 91.193 91.981 87.203 93.393 C 84.197 94.067 82.319 93.3 80.738 90.609 L 63.994 57.619 C 62.999 55.63 60.016 55.63 59.021 57.619 L 53.551 68.561 C 52.556 70.55 49.571 70.55 48.576 68.561 L 32.66 36.73 C 31.665 34.741 28.682 34.741 27.688 36.73 L 6 80.236 L 6 16.301 C 6 10.543 10.543 6 16.301 6 Z M 72.854 16.648 C 67.725 16.648 63.568 20.805 63.568 25.934 C 63.569 31.061 67.726 35.217 72.854 35.217 C 77.98 35.216 82.136 31.06 82.137 25.934 C 82.137 20.806 77.981 16.649 72.854 16.648 Z"/>
</svg>
